icons/ws.svg

<?xml version="1.0" ?>
<svg xmlns="http://www.w3.org/2000/svg" xmlns:ev="http://www.w3.org/2001/xml-events" xmlns:xlink="http://www.w3.org/1999/xlink" baseProfile="full" height="279px" version="1.1" viewBox="-1032.4215 2268.7785 12301.843 5711.443" width="600px">
	<defs/>
	<path d="M 3273.0,7466.0 C 3236.0,7434.0 3231.0,7433.0 3130.0,7427.0 C 3023.0,7421.0 2889.0,7388.0 2843.0,7355.0 C 2831.0,7346.0 2816.0,7321.0 2810.0,7299.0 C 2802.0,7269.0 2795.0,7260.0 2784.0,7264.0 C 2775.0,7267.0 2758.0,7270.0 2746.0,7270.0 C 2726.0,7270.0 2724.0,7274.0 2728.0,7297.0 C 2732.0,7317.0 2730.0,7322.0 2718.0,7318.0 C 2710.0,7314.0 2679.0,7309.0 2649.0,7305.0 C 2606.0,7300.0 2584.0,7303.0 2542.0,7319.0 C 2454.0,7354.0 2404.0,7348.0 2257.0,7284.0 L 2128.0,7228.0 L 2080.0,7249.0 C 2004.0,7282.0 1968.0,7277.0 1850.0,7219.0 C 1792.0,7191.0 1715.0,7150.0 1678.0,7129.0 C 1614.0,7091.0 1609.0,7090.0 1518.0,7090.0 C 1430.0,7090.0 1419.0,7087.0 1320.0,7046.0 C 1233.0,7009.0 1213.0,6997.0 1201.0,6972.0 L 1187.0,6942.0 L 1143.0,6963.0 C 1115.0,6977.0 1101.0,6989.0 1105.0,6998.0 C 1108.0,7006.0 1113.0,7022.0 1116.0,7035.0 L 1122.0,7058.0 L 1012.0,7034.0 C 952.0,7021.0 868.0,6998.0 824.0,6983.0 C 750.0,6956.0 740.0,6955.0 680.0,6965.0 C 644.0,6971.0 587.0,6986.0 552.0,6998.0 C 518.0,7010.0 476.0,7020.0 460.0,7020.0 C 443.0,7020.0 430.0,7023.0 430.0,7028.0 C 430.0,7032.0 417.0,7050.0 401.0,7069.0 C 377.0,7098.0 371.0,7101.0 353.0,7092.0 C 337.0,7083.0 319.0,7085.0 273.0,7102.0 C 215.0,7123.0 212.0,7123.0 169.0,7107.0 C 145.0,7098.0 96.0,7064.0 61.0,7032.0 L -3.0,6975.0 L 28.0,6913.0 C 46.0,6879.0 63.0,6832.0 66.0,6809.0 C 71.0,6777.0 85.0,6753.0 119.0,6716.0 C 202.0,6627.0 320.0,6540.0 431.0,6487.0 C 531.0,6438.0 539.0,6432.0 576.0,6375.0 C 651.0,6259.0 768.0,6153.0 848.0,6129.0 C 879.0,6120.0 896.0,6107.0 912.0,6081.0 C 924.0,6061.0 986.0,5991.0 1050.0,5925.0 C 1125.0,5849.0 1182.0,5779.0 1208.0,5735.0 C 1268.0,5631.0 1358.0,5549.0 1448.0,5515.0 C 1487.0,5500.0 1520.0,5483.0 1520.0,5477.0 C 1520.0,5470.0 1525.0,5425.0 1531.0,5375.0 C 1543.0,5276.0 1557.0,5241.0 1602.0,5194.0 C 1618.0,5176.0 1642.0,5134.0 1655.0,5099.0 L 1678.0,5035.0 L 1743.0,5016.0 C 1799.0,5000.0 1811.0,4992.0 1821.0,4967.0 C 1828.0,4950.0 1860.0,4901.0 1893.0,4857.0 L 1952.0,4778.0 L 2018.0,4784.0 C 2181.0,4798.0 2216.0,4806.0 2306.0,4848.0 C 2433.0,4907.0 2449.0,4909.0 2505.0,4872.0 C 2531.0,4855.0 2565.0,4838.0 2582.0,4835.0 C 2608.0,4829.0 2618.0,4833.0 2654.0,4869.0 C 2694.0,4908.0 2699.0,4910.0 2758.0,4910.0 C 2802.0,4910.0 2833.0,4916.0 2862.0,4931.0 L 2904.0,4952.0 L 2923.0,4926.0 C 2933.0,4912.0 2946.0,4900.0 2950.0,4900.0 C 2955.0,4900.0 2986.0,4916.0 3019.0,4935.0 L 3080.0,4971.0 L 3280.0,4969.0 L 3479.0,4968.0 L 3504.0,4996.0 C 3518.0,5012.0 3538.0,5046.0 3547.0,5073.0 C 3564.0,5119.0 3566.0,5120.0 3606.0,5120.0 C 3629.0,5120.0 3674.0,5117.0 3708.0,5114.0 L 3769.0,5107.0 L 3775.0,5044.0 C 3782.0,4982.0 3783.0,4981.0 3859.0,4907.0 L 3935.0,4833.0 L 4038.0,4812.0 C 4173.0,4783.0 4189.0,4784.0 4246.0,4823.0 C 4340.0,4886.0 4358.0,4949.0 4325.0,5100.0 C 4317.0,5136.0 4311.0,5184.0 4310.0,5207.0 C 4310.0,5249.0 4311.0,5251.0 4385.0,5302.0 C 4467.0,5359.0 4472.0,5371.0 4449.0,5450.0 C 4433.0,5503.0 4457.0,5548.0 4547.0,5638.0 C 4638.0,5728.0 4642.0,5755.0 4581.0,5842.0 C 4506.0,5950.0 4472.0,6021.0 4465.0,6090.0 C 4458.0,6154.0 4428.0,6226.0 4373.0,6313.0 C 4356.0,6340.0 4349.0,6363.0 4351.0,6390.0 C 4354.0,6421.0 4348.0,6435.0 4321.0,6467.0 C 4303.0,6488.0 4259.0,6550.0 4223.0,6605.0 C 4187.0,6660.0 4131.0,6730.0 4100.0,6760.0 C 4057.0,6801.0 4036.0,6830.0 4019.0,6875.0 C 3991.0,6951.0 3985.0,6958.0 3945.0,6966.0 C 3921.0,6970.0 3909.0,6979.0 3902.0,6998.0 C 3896.0,7013.0 3854.0,7072.0 3808.0,7130.0 C 3755.0,7195.0 3713.0,7260.0 3696.0,7300.0 C 3674.0,7353.0 3661.0,7371.0 3627.0,7392.0 C 3540.0,7446.0 3502.0,7460.0 3443.0,7460.0 C 3403.0,7460.0 3375.0,7466.0 3352.0,7480.0 C 3334.0,7491.0 3317.0,7500.0 3315.0,7500.0 C 3312.0,7500.0 3293.0,7485.0 3273.0,7466.0" fill="pink"/>
	<path d="M 7127.0,4834.0 C 7124.0,4831.0 7066.0,4824.0 6998.0,4819.0 C 6634.0,4792.0 6653.0,4795.0 6507.0,4746.0 C 6432.0,4721.0 6349.0,4697.0 6322.0,4693.0 C 6291.0,4689.0 6268.0,4680.0 6255.0,4664.0 C 6220.0,4624.0 6115.0,4600.0 5970.0,4600.0 C 5852.0,4600.0 5835.0,4597.0 5742.0,4567.0 L 5642.0,4533.0 L 5523.0,4414.0 C 5389.0,4281.0 5380.0,4262.0 5402.0,4152.0 C 5412.0,4102.0 5418.0,4094.0 5488.0,4035.0 C 5562.0,3973.0 5567.0,3971.0 5687.0,3941.0 C 5754.0,3924.0 5823.0,3910.0 5840.0,3910.0 C 5870.0,3910.0 5870.0,3910.0 5854.0,3885.0 C 5838.0,3860.0 5841.0,3810.0 5859.0,3810.0 C 5876.0,3810.0 5967.0,3730.0 5994.0,3691.0 C 6019.0,3655.0 6025.0,3652.0 6044.0,3662.0 C 6073.0,3677.0 6080.0,3690.0 6080.0,3728.0 C 6080.0,3755.0 6084.0,3760.0 6104.0,3760.0 C 6139.0,3760.0 6183.0,3702.0 6206.0,3628.0 C 6217.0,3589.0 6241.0,3546.0 6273.0,3506.0 C 6300.0,3473.0 6329.0,3432.0 6337.0,3416.0 C 6347.0,3396.0 6375.0,3377.0 6433.0,3349.0 C 6478.0,3328.0 6533.0,3297.0 6556.0,3280.0 L 6597.0,3249.0 L 6661.0,3264.0 C 6740.0,3282.0 6896.0,3353.0 6931.0,3386.0 C 6953.0,3407.0 6958.0,3409.0 6963.0,3396.0 C 6968.0,3383.0 6987.0,3380.0 7054.0,3380.0 C 7131.0,3380.0 7140.0,3378.0 7155.0,3358.0 C 7170.0,3336.0 7170.0,3335.0 7136.0,3330.0 L 7102.0,3325.0 L 7150.0,3273.0 C 7179.0,3241.0 7207.0,3220.0 7220.0,3220.0 C 7247.0,3220.0 7518.0,3152.0 7542.0,3139.0 C 7571.0,3124.0 7636.0,3029.0 7652.0,2980.0 L 7667.0,2935.0 L 7764.0,2932.0 L 7862.0,2929.0 L 7938.0,2974.0 C 8038.0,3032.0 8087.0,3045.0 8174.0,3035.0 C 8240.0,3028.0 8244.0,3026.0 8288.0,2979.0 L 8333.0,2930.0 L 8406.0,2930.0 C 8465.0,2930.0 8491.0,2936.0 8545.0,2960.0 C 8588.0,2979.0 8628.0,2990.0 8658.0,2990.0 C 8684.0,2990.0 8721.0,2995.0 8741.0,3000.0 C 8771.0,3009.0 8786.0,3006.0 8831.0,2987.0 C 8876.0,2967.0 8911.0,2961.0 9035.0,2955.0 C 9118.0,2950.0 9230.0,2947.0 9285.0,2948.0 C 9340.0,2950.0 9504.0,2951.0 9650.0,2953.0 L 9915.0,2955.0 L 10005.0,2918.0 C 10054.0,2897.0 10097.0,2880.0 10101.0,2880.0 C 10113.0,2880.0 10122.0,2912.0 10130.0,2980.0 C 10134.0,3019.0 10152.0,3080.0 10174.0,3130.0 C 10196.0,3182.0 10210.0,3229.0 10210.0,3256.0 C 10210.0,3296.0 10208.0,3299.0 10145.0,3340.0 C 10109.0,3364.0 10060.0,3405.0 10037.0,3432.0 C 10003.0,3472.0 9985.0,3483.0 9940.0,3495.0 C 9910.0,3503.0 9871.0,3510.0 9854.0,3510.0 C 9830.0,3510.0 9816.0,3518.0 9796.0,3544.0 C 9782.0,3563.0 9766.0,3590.0 9760.0,3604.0 C 9753.0,3622.0 9739.0,3632.0 9708.0,3640.0 C 9656.0,3652.0 9607.0,3668.0 9563.0,3687.0 C 9534.0,3699.0 9530.0,3705.0 9530.0,3740.0 C 9530.0,3776.0 9526.0,3782.0 9478.0,3814.0 L 9427.0,3849.0 L 9397.0,3824.0 C 9347.0,3782.0 9268.0,3746.0 9201.0,3734.0 L 9138.0,3723.0 L 9144.0,3764.0 C 9148.0,3786.0 9156.0,3808.0 9163.0,3812.0 C 9169.0,3816.0 9215.0,3833.0 9265.0,3851.0 C 9314.0,3868.0 9358.0,3886.0 9363.0,3889.0 C 9376.0,3902.0 9284.0,3960.0 9251.0,3960.0 C 9224.0,3960.0 9220.0,3964.0 9220.0,3986.0 C 9220.0,4007.0 9212.0,4015.0 9170.0,4032.0 C 9136.0,4046.0 9120.0,4058.0 9120.0,4071.0 C 9120.0,4094.0 9106.0,4103.0 9048.0,4115.0 L 9000.0,4125.0 L 9030.0,4170.0 C 9046.0,4195.0 9060.0,4218.0 9060.0,4221.0 C 9060.0,4229.0 8940.0,4250.0 8891.0,4250.0 C 8865.0,4250.0 8828.0,4239.0 8790.0,4220.0 C 8721.0,4185.0 8704.0,4183.0 8691.0,4209.0 C 8683.0,4223.0 8665.0,4228.0 8604.0,4233.0 C 8530.0,4238.0 8525.0,4240.0 8481.0,4283.0 C 8415.0,4347.0 8370.0,4356.0 8226.0,4334.0 L 8114.0,4317.0 L 8069.0,4352.0 C 8044.0,4371.0 8007.0,4405.0 7987.0,4427.0 C 7960.0,4456.0 7936.0,4471.0 7896.0,4483.0 C 7866.0,4491.0 7820.0,4514.0 7795.0,4534.0 C 7769.0,4553.0 7742.0,4566.0 7734.0,4563.0 C 7699.0,4550.0 7647.0,4572.0 7597.0,4623.0 L 7546.0,4675.0 L 7537.0,4629.0 L 7528.0,4582.0 L 7443.0,4633.0 C 7373.0,4676.0 7354.0,4693.0 7335.0,4730.0 C 7314.0,4771.0 7305.0,4778.0 7233.0,4808.0 C 7153.0,4841.0 7138.0,4845.0 7127.0,4834.0" fill="pink"/>
	<path d="M 4790.0,4625.0 C 4790.0,4604.0 4795.0,4600.0 4820.0,4600.0 C 4845.0,4600.0 4850.0,4604.0 4850.0,4625.0 C 4850.0,4646.0 4845.0,4650.0 4820.0,4650.0 C 4795.0,4650.0 4790.0,4646.0 4790.0,4625.0" fill="pink"/>
	<path d="M 5053.0,4473.0 C 5015.0,4454.0 5014.0,4449.0 5040.0,4393.0 C 5058.0,4352.0 5061.0,4350.0 5104.0,4350.0 C 5147.0,4350.0 5149.0,4351.0 5154.0,4383.0 C 5157.0,4400.0 5156.0,4431.0 5152.0,4450.0 C 5145.0,4480.0 5140.0,4485.0 5115.0,4487.0 C 5098.0,4488.0 5070.0,4482.0 5053.0,4473.0" fill="pink"/>
	<path d="M 10142.0,2798.0 L 10145.0,2755.0 L 10193.0,2752.0 L 10240.0,2749.0 L 10240.0,2784.0 C 10240.0,2820.0 10238.0,2822.0 10172.0,2835.0 L 10139.0,2842.0 L 10142.0,2798.0" fill="pink"/>
</svg>

<?xml version="1.0" standalone="no"?>
<!DOCTYPE svg PUBLIC "-//W3C//DTD SVG 20010904//EN"
 "http://www.w3.org/TR/2001/REC-SVG-20010904/DTD/svg10.dtd">
<svg version="1.0" xmlns="http://www.w3.org/2000/svg"
 width="1024.000000pt" height="1024.000000pt" viewBox="0 0 1024.000000 1024.000000"
 preserveAspectRatio="xMidYMid meet">
<metadata>
Created by potrace 1.10, written by Peter Selinger 2001-2011
</metadata>
<g transform="translate(0.000000,1024.000000) scale(0.100000,-0.100000)"
fill="#000000" stroke="none">
<path d="M3273 7466 c-37 -32 -42 -33 -143 -39 -107 -6 -241 -39 -287 -72 -12
-9 -27 -34 -33 -56 -8 -30 -15 -39 -26 -35 -9 3 -26 6 -38 6 -20 0 -22 4 -18
27 4 20 2 25 -10 21 -8 -4 -39 -9 -69 -13 -43 -5 -65 -2 -107 14 -88 35 -138
29 -285 -35 l-129 -56 -48 21 c-76 33 -112 28 -230 -30 -58 -28 -135 -69 -172
-90 -64 -38 -69 -39 -160 -39 -88 0 -99 -3 -198 -44 -87 -37 -107 -49 -119
-74 l-14 -30 -44 21 c-28 14 -42 26 -38 35 3 8 8 24 11 37 l6 23 -110 -24
c-60 -13 -144 -36 -188 -51 -74 -27 -84 -28 -144 -18 -36 6 -93 21 -128 33
-34 12 -76 22 -92 22 -17 0 -30 3 -30 8 0 4 -13 22 -29 41 -24 29 -30 32 -48
23 -16 -9 -34 -7 -80 10 -58 21 -61 21 -104 5 -24 -9 -73 -43 -108 -75 l-64
-57 31 -62 c18 -34 35 -81 38 -104 5 -32 19 -56 53 -93 83 -89 201 -176 312
-229 100 -49 108 -55 145 -112 75 -116 192 -222 272 -246 31 -9 48 -22 64 -48
12 -20 74 -90 138 -156 75 -76 132 -146 158 -190 60 -104 150 -186 240 -220
39 -15 72 -32 72 -38 0 -7 5 -52 11 -102 12 -99 26 -134 71 -181 16 -18 40
-60 53 -95 l23 -64 65 -19 c56 -16 68 -24 78 -49 7 -17 39 -66 72 -110 l59
-79 66 6 c163 14 198 22 288 64 127 59 143 61 199 24 26 -17 60 -34 77 -37 26
-6 36 -2 72 34 40 39 45 41 104 41 44 0 75 6 104 21 l42 21 19 -26 c10 -14 23
-26 27 -26 5 0 36 16 69 35 l61 36 200 -2 199 -1 25 28 c14 16 34 50 43 77 17
46 19 47 59 47 23 0 68 -3 102 -6 l61 -7 6 -63 c7 -62 8 -63 84 -137 l76 -74
103 -21 c135 -29 151 -28 208 11 94 63 112 126 79 277 -8 36 -14 84 -15 107 0
42 1 44 75 95 82 57 87 69 64 148 -16 53 8 98 98 188 91 90 95 117 34 204 -75
108 -109 179 -116 248 -7 64 -37 136 -92 223 -17 27 -24 50 -22 77 3 31 -3 45
-30 77 -18 21 -62 83 -98 138 -36 55 -92 125 -123 155 -43 41 -64 70 -81 115
-28 76 -34 83 -74 91 -24 4 -36 13 -43 32 -6 15 -48 74 -94 132 -53 65 -95
130 -112 170 -22 53 -35 71 -69 92 -87 54 -125 68 -184 68 -40 0 -68 6 -91 20
-18 11 -35 20 -37 20 -3 0 -22 -15 -42 -34z"/>
<path d="M7127 4834 c-3 -3 -61 -10 -129 -15 -364 -27 -345 -24 -491 -73 -75
-25 -158 -49 -185 -53 -31 -4 -54 -13 -67 -29 -35 -40 -140 -64 -285 -64 -118
0 -135 -3 -228 -33 l-100 -34 -119 -119 c-134 -133 -143 -152 -121 -262 10
-50 16 -58 86 -117 74 -62 79 -64 199 -94 67 -17 136 -31 153 -31 30 0 30 0
14 -25 -16 -25 -13 -75 5 -75 17 0 108 -80 135 -119 25 -36 31 -39 50 -29 29
15 36 28 36 66 0 27 4 32 24 32 35 0 79 -58 102 -132 11 -39 35 -82 67 -122
27 -33 56 -74 64 -90 10 -20 38 -39 96 -67 45 -21 100 -52 123 -69 l41 -31 64
15 c79 18 235 89 270 122 22 21 27 23 32 10 5 -13 24 -16 91 -16 77 0 86 -2
101 -22 15 -22 15 -23 -19 -28 l-34 -5 48 -52 c29 -32 57 -53 70 -53 27 0 298
-68 322 -81 29 -15 94 -110 110 -159 l15 -45 97 -3 98 -3 76 45 c100 58 149
71 236 61 66 -7 70 -9 114 -56 l45 -49 73 0 c59 0 85 6 139 30 43 19 83 30
113 30 26 0 63 5 83 10 30 9 45 6 90 -13 45 -20 80 -26 204 -32 83 -5 195 -8
250 -7 55 2 219 3 365 5 l265 2 90 -37 c49 -21 92 -38 96 -38 12 0 21 32 29
100 4 39 22 100 44 150 22 52 36 99 36 126 0 40 -2 43 -65 84 -36 24 -85 65
-108 92 -34 40 -52 51 -97 63 -30 8 -69 15 -86 15 -24 0 -38 8 -58 34 -14 19
-30 46 -36 60 -7 18 -21 28 -52 36 -52 12 -101 28 -145 47 -29 12 -33 18 -33
53 0 36 -4 42 -52 74 l-51 35 -30 -25 c-50 -42 -129 -78 -196 -90 l-63 -11 6
41 c4 22 12 44 19 48 6 4 52 21 102 39 49 17 93 35 98 38 13 13 -79 71 -112
71 -27 0 -31 4 -31 26 0 21 -8 29 -50 46 -34 14 -50 26 -50 39 0 23 -14 32
-72 44 l-48 10 30 45 c16 25 30 48 30 51 0 8 -120 29 -169 29 -26 0 -63 -11
-101 -30 -69 -35 -86 -37 -99 -11 -8 14 -26 19 -87 24 -74 5 -79 7 -123 50
-66 64 -111 73 -255 51 l-112 -17 -45 35 c-25 19 -62 53 -82 75 -27 29 -51 44
-91 56 -30 8 -76 31 -101 51 -26 19 -53 32 -61 29 -35 -13 -87 9 -137 60 l-51
52 -9 -46 -9 -47 -85 51 c-70 43 -89 60 -108 97 -21 41 -30 48 -102 78 -80 33
-95 37 -106 26z"/>
<path d="M4790 4625 c0 -21 5 -25 30 -25 25 0 30 4 30 25 0 21 -5 25 -30 25
-25 0 -30 -4 -30 -25z"/>
<path d="M5053 4473 c-38 -19 -39 -24 -13 -80 18 -41 21 -43 64 -43 43 0 45 1
50 33 3 17 2 48 -2 67 -7 30 -12 35 -37 37 -17 1 -45 -5 -62 -14z"/>
<path d="M10142 2798 l3 -43 48 -3 47 -3 0 35 c0 36 -2 38 -68 51 l-33 7 3
-44z"/>
</g>
</svg>
